X: 126
T: A Bucket Full
R: polka
M: 2/4
K: Dmajor
A|F/E/D FA|Bc d2|fa ge|cA GE|F/E/D FA|Bc d2-|df ec|d2 d:|
e|fa g>e|fa ge|fa ge|cA GE|FA G>E|FA GE|F/E/D FA|Bc d:|
A|B/c/d fe|B/c/d af|d2 fa|ge cA|B/c/d fe|B/c/d af|df ec|d2 dA|
B/c/d fe|B/c/d af|d2 fa|ge cA|F/E/D FA|Bc d2-|df ec|d2 d:|

